packages/icons/svgs/duotone/Source=robotic-arm.svg

<svg width="24" height="24" viewBox="0 0 24 24" fill="none" xmlns="http://www.w3.org/2000/svg">
<g opacity="0.55">
<path fill-rule="evenodd" clip-rule="evenodd" d="M5.99999 6C5.99999 5.44772 6.44771 5 6.99999 5H15C15.5523 5 16 5.44772 16 6C16 6.55228 15.5523 7 15 7H6.99999C6.44771 7 5.99999 6.55228 5.99999 6Z" fill="black"/>
<path fill-rule="evenodd" clip-rule="evenodd" d="M4.89382 7.78655C5.38781 7.53959 5.98847 7.73984 6.23544 8.23382L10.8944 17.5528C11.1414 18.0468 10.9412 18.6475 10.4472 18.8944C9.95318 19.1414 9.35251 18.9412 9.10555 18.4472L4.44655 9.12818C4.19958 8.63419 4.39983 8.03352 4.89382 7.78655Z" fill="black"/>
</g>
<path fill-rule="evenodd" clip-rule="evenodd" d="M4 4C2.89543 4 2 4.89543 2 6C2 7.10457 2.89543 8 4 8C5.10457 8 6 7.10457 6 6C6 4.89543 5.10457 4 4 4ZM0 6C0 3.79086 1.79086 2 4 2C6.20914 2 8 3.79086 8 6C8 8.20914 6.20914 10 4 10C1.79086 10 0 8.20914 0 6Z" fill="black"/>
<path fill-rule="evenodd" clip-rule="evenodd" d="M16.1056 1.55279C16.3072 1.14944 16.7539 0.93098 17.1961 1.01942L22.1961 2.01942C22.7377 2.12773 23.0889 2.65456 22.9806 3.19612C22.8723 3.73768 22.3454 4.08889 21.8039 3.98058L17.5528 3.13037L16.118 6L17.5528 8.86963L21.8039 8.01942C22.3454 7.91111 22.8723 8.26232 22.9806 8.80388C23.0889 9.34544 22.7377 9.87227 22.1961 9.98058L17.1961 10.9806C16.7539 11.069 16.3072 10.8506 16.1056 10.4472L14.1056 6.44721C13.9648 6.16569 13.9648 5.83431 14.1056 5.55279L16.1056 1.55279Z" fill="black"/>
<path fill-rule="evenodd" clip-rule="evenodd" d="M1 18C1 17.4477 1.44772 17 2 17H18C18.5523 17 19 17.4477 19 18V22C19 22.5523 18.5523 23 18 23H2C1.44772 23 1 22.5523 1 22V18ZM3 19V21H17V19H3Z" fill="black"/>
</svg>

<svg xmlns="http://www.w3.org/2000/svg" width="24" height="24" viewBox="0 0 24 24"><path fill-rule="evenodd" d="M6 6a1 1 0 0 1 1-1h8a1 1 0 1 1 0 2H7a1 1 0 0 1-1-1ZM4.894 7.787a1 1 0 0 1 1.341.447l4.66 9.319a1 1 0 1 1-1.79.894L4.448 9.128a1 1 0 0 1 .447-1.341Z" clip-rule="evenodd" opacity=".55"/><path fill-rule="evenodd" d="M4 4a2 2 0 1 0 0 4 2 2 0 0 0 0-4ZM0 6a4 4 0 1 1 8 0 4 4 0 0 1-8 0Zm16.106-4.447a1 1 0 0 1 1.09-.534l5 1a1 1 0 1 1-.392 1.962l-4.251-.85L16.118 6l1.435 2.87 4.25-.85a1 1 0 0 1 .393 1.96l-5 1a1 1 0 0 1-1.09-.533l-2-4a1 1 0 0 1 0-.894l2-4ZM1 18a1 1 0 0 1 1-1h16a1 1 0 0 1 1 1v4a1 1 0 0 1-1 1H2a1 1 0 0 1-1-1v-4Zm2 1v2h14v-2H3Z" clip-rule="evenodd"/></svg>
